icons/evolvere-blue-folders-flat-vivid-dark-fallback/apps/64/knotes.svg

<svg xmlns="http://www.w3.org/2000/svg" viewBox="0 0 64 64"><defs><linearGradient id="0" gradientUnits="userSpaceOnUse" y1="64.13" x2="0" y2="2.134"><stop stop-color="#ffd130"/><stop offset=".501" stop-color="#ffd130"/><stop offset=".502" stop-color="#f1be30"/><stop offset="1" stop-color="#f1be30"/></linearGradient></defs><g color="#000"><path d="m0 4v58 2h64v-2-58z" fill="url(#0)"/><path d="m2 0l-2 1v3h64v-3l-2-1z" fill="#ffe865"/></g><path d="m0 3v3l2-2" fill="#ffec7f"/><path d="m64 6l-2-2 2-1z" fill="#f7d149"/><g color="#000"><path d="m64 40l-24 24h22 2z" fill="#e7ac26"/><path d="m42 16.5a7.5 7.5 0 1 1 -15 0 7.5 7.5 0 1 1 15 0" transform="matrix(.80812.80812-.4714.4714 17.995-16.562)" fill="#690101" fill-opacity=".097"/><path transform="matrix(.66667 0 0 .66667 9 2)" d="m42 16.5a7.5 7.5 0 1 1 -15 0 7.5 7.5 0 1 1 15 0" fill="#3e81d9"/></g><path d="m40 64l24-24h-24z" fill="#f3bd24"/><path d="m2 0l-2 1h64l-2-1h-60m-2 2v1h64v-1h-64" fill="#a90000" fill-opacity=".087"/></svg>

<?xml version="1.0" encoding="UTF-8" standalone="no"?>
<!-- Created with Inkscape (http://www.inkscape.org/) -->

<svg
   xmlns:dc="http://purl.org/dc/elements/1.1/"
   xmlns:cc="http://creativecommons.org/ns#"
   xmlns:rdf="http://www.w3.org/1999/02/22-rdf-syntax-ns#"
   xmlns:svg="http://www.w3.org/2000/svg"
   xmlns="http://www.w3.org/2000/svg"
   xmlns:xlink="http://www.w3.org/1999/xlink"
   xmlns:sodipodi="http://sodipodi.sourceforge.net/DTD/sodipodi-0.dtd"
   xmlns:inkscape="http://www.inkscape.org/namespaces/inkscape"
   width="64"
   height="64"
   id="svg13094"
   version="1.1"
   inkscape:version="0.91+devel r"
   sodipodi:docname="knotes.svg">
  <sodipodi:namedview
     id="base"
     pagecolor="#ffffff"
     bordercolor="#666666"
     borderopacity="1.0"
     inkscape:pageopacity="0"
     inkscape:pageshadow="2"
     inkscape:zoom="11.313709"
     inkscape:cx="32.419327"
     inkscape:cy="33.836984"
     inkscape:document-units="px"
     inkscape:current-layer="svg13094"
     showgrid="true"
     inkscape:snap-bbox="true"
     inkscape:bbox-paths="true"
     inkscape:bbox-nodes="true"
     inkscape:snap-bbox-edge-midpoints="true"
     inkscape:snap-bbox-midpoints="true"
     inkscape:object-paths="true"
     inkscape:snap-intersection-paths="true"
     inkscape:object-nodes="true"
     inkscape:snap-smooth-nodes="true"
     inkscape:snap-midpoints="true"
     inkscape:snap-object-midpoints="true"
     inkscape:snap-center="true"
     showguides="true"
     inkscape:guide-bbox="true"
     inkscape:window-width="1920"
     inkscape:window-height="1023"
     inkscape:window-x="-10"
     inkscape:window-y="35"
     inkscape:window-maximized="1"
     inkscape:snap-global="true"
     fit-margin-top="0"
     fit-margin-left="0"
     fit-margin-right="0"
     fit-margin-bottom="0"
     showborder="true"
     inkscape:showpageshadow="false"
     inkscape:snap-page="true">
    <inkscape:grid
       type="xygrid"
       id="grid3075"
       empspacing="5"
       visible="true"
       enabled="true"
       snapvisiblegridlinesonly="true"
       originx="1.6362304e-08px"
       originy="18px" />
  </sodipodi:namedview>
  <defs
     id="defs13096">
    <linearGradient
       inkscape:collect="always"
       xlink:href="#linearGradient5518-4"
       id="linearGradient5090-1"
       gradientUnits="userSpaceOnUse"
       gradientTransform="translate(133.60164,-63.865697)"
       x1="-129.43892"
       y1="127.99998"
       x2="-129.43909"
       y2="65.999985" />
    <linearGradient
       x1="48.917568"
       y1="110.2137"
       x2="32.669781"
       y2="88"
       id="linearGradient5518-4"
       gradientUnits="userSpaceOnUse"
       gradientTransform="translate(0,-64)">
      <stop
         id="stop5520-0"
         style="stop-color:#ffd130;stop-opacity:1"
         offset="0" />
      <stop
         id="stop5522-3"
         style="stop-color:#ffd130;stop-opacity:1"
         offset="0.50050378" />
      <stop
         id="stop5524-4"
         style="stop-color:#f1be30;stop-opacity:1"
         offset="0.50216585" />
      <stop
         id="stop5526-9"
         style="stop-color:#f1be30;stop-opacity:1"
         offset="1" />
    </linearGradient>
  </defs>
  <metadata
     id="metadata13099">
    <rdf:RDF>
      <cc:Work
         rdf:about="">
        <dc:format>image/svg+xml</dc:format>
        <dc:type
           rdf:resource="http://purl.org/dc/dcmitype/StillImage" />
        <dc:title></dc:title>
      </cc:Work>
    </rdf:RDF>
  </metadata>
  <path
     sodipodi:nodetypes="ccccccc"
     inkscape:connector-curvature="0"
     id="path6596"
     d="M 0,4 0,62 1.6362304e-8,64 64,64 64,62 64,4 z"
     style="color:#000000;fill:url(#linearGradient5090-1);fill-opacity:1;fill-rule:nonzero;stroke:none;stroke-width:1;marker:none;visibility:visible;display:inline;overflow:visible;enable-background:accumulate" />
  <path
     style="color:#000000;fill:#ffe865;fill-opacity:1;fill-rule:nonzero;stroke:none;marker:none;visibility:visible;display:inline;overflow:visible;enable-background:accumulate"
     d="M 2,0 0,1 0,4 64,4 64,1 62,0 z"
     id="path6502"
     inkscape:connector-curvature="0"
     sodipodi:nodetypes="ccccccc" />
  <path
     sodipodi:nodetypes="cccc"
     inkscape:connector-curvature="0"
     id="path7511"
     d="M 0,3 0,6 2,4 Z"
     style="fill:#ffec7f;fill-opacity:1;fill-rule:nonzero" />
  <path
     d="M 64,6 62,4 64,3 z"
     id="path3028"
     style="fill:#f7d149;fill-opacity:1"
     inkscape:connector-curvature="0"
     sodipodi:nodetypes="cccc" />
  <g
     id="g3043"
     inkscape:export-filename="folder.png"
     inkscape:export-xdpi="90"
     inkscape:export-ydpi="90"
     transform="translate(-0.62500009,0.082283)" />
  <g
     id="scalable"
     transform="matrix(1.0385892,0,0,1.0385892,1214.7222,1878.8121)"
     inkscape:label="#g3701"
     style="fill:#ffffff" />
  <path
     style="color:#000000;display:inline;overflow:visible;visibility:visible;fill:#e7ac26;fill-opacity:1;fill-rule:nonzero;stroke:none;stroke-width:2.28571415;marker:none;enable-background:accumulate"
     d="m 64,40 -24,24 22,0 2,0 z"
     id="path4230"
     inkscape:connector-curvature="0"
     sodipodi:nodetypes="ccccc" />
  <path
     sodipodi:type="arc"
     style="color:#000000;fill:#690101;fill-opacity:0.09749553;fill-rule:nonzero;stroke:none;stroke-width:1.07142854;marker:none;visibility:visible;display:inline;overflow:visible;enable-background:accumulate"
     id="path6648"
     sodipodi:cx="34.5"
     sodipodi:cy="16.5"
     sodipodi:rx="7.5"
     sodipodi:ry="7.5"
     d="m 42,16.5 a 7.5,7.5 0 1 1 -15,0 7.5,7.5 0 1 1 15,0 z"
     transform="matrix(0.80812199,0.80812199,-0.47140452,0.47140452,17.994774,-16.561575)"
     inkscape:transform-center-x="-6.096808"
     inkscape:transform-center-y="6.0968082" />
  <path
     transform="matrix(0.66666666,0,0,0.66666666,9.0000003,2.0000002)"
     d="m 42,16.5 a 7.5,7.5 0 1 1 -15,0 7.5,7.5 0 1 1 15,0 z"
     sodipodi:ry="7.5"
     sodipodi:rx="7.5"
     sodipodi:cy="16.5"
     sodipodi:cx="34.5"
     id="path6650"
     style="color:#000000;fill:#3e81d9;fill-opacity:1;fill-rule:nonzero;stroke:none;stroke-width:1;marker:none;visibility:visible;display:inline;overflow:visible;enable-background:accumulate"
     sodipodi:type="arc" />
  <path
     inkscape:connector-curvature="0"
     id="path3811"
     d="M 40,64 64,40 40,40 z"
     style="fill:#f3bd24;stroke:none;fill-opacity:1"
     sodipodi:nodetypes="cccc" />
  <path
     style="opacity:1;fill:#a90000;fill-opacity:0.08676208;fill-rule:nonzero;stroke:none;stroke-width:0.93521947;stroke-linecap:butt;stroke-linejoin:miter;stroke-miterlimit:4;stroke-dasharray:none;stroke-dashoffset:0;stroke-opacity:1;marker:none"
     d="M 2 0 L 0 1 L 64 1 L 62 0 L 2 0 z M 0 2 L 0 3 L 64 3 L 64 2 L 0 2 z "
     id="path7509" />
</svg>
